StripePaymentSheet/StripePaymentSheet/Resources/StripePaymentSheet.xcassets/PaymentMethods/icon-pm-konbini.imageset/icon-pm-konbini-color.svg

<svg fill="none" height="16" viewBox="0 0 16 16" width="16" xmlns="http://www.w3.org/2000/svg" xmlns:xlink="http://www.w3.org/1999/xlink"><clipPath id="a"><path d="m0 0h16v16h-16z"/></clipPath><g clip-path="url(#a)"><path clip-rule="evenodd" d="m12.0001 2.66666v4.00001h-8.00002v-5.33334h7.99992v1.33333zm1.3333 0v.00001h1.3333v-.00001zm1.3333 1.36001h-1.3333v1.30666h1.3333zm0 3.97332h-2.5334v-.00666c-.0441.00443-.0885.00667-.1332.00667h-8.00002c-.06742 0-.13431-.00511-.20015-.0151v.01509h-2.4666v6.66671h2.66667v-4c0-.3537.14048-.6928.39052-.94285.25005-.25005.58919-.39052.94281-.39052h5.33337c.3536 0 .6927.14047.9428.39052.25.25005.3905.58915.3905.94285v4h2.6667zm-4 8.00001h-5.33337-4c-.353619 0-.692757-.1405-.942806-.3905-.250048-.2501-.390524-.5892-.390524-.9428v-12.00004c0-.35362.140476-.69276.390524-.94281.250049-.25005.589187-.39052.942806-.39052h1.33342c0-.353622.14047-.692758.39052-.942806s.58919-.390524.94281-.390524h8.00002c.3536 0 .6927.140476.9428.390524.25.250049.3905.589187.3905.942806h1.3333c.3536 0 .6927.14047.9428.39052.25.25005.3905.58919.3905.94281v12.00004c0 .3536-.1405.6927-.3905.9428-.2501.25-.5892.3905-.9428.3905zm-7.99995-13.33334h-1.33342v.00001h1.33342zm-1.33342 1.36001h1.33342v1.30666h-1.33342zm9.33337 10.64003v-4h-2.00012v4zm-3.33345 0v-4h-1.99992v4zm-2.13299-9.75312c-.20332.32718-.31828.70152-.33366 1.08642h2.77334l.10666-.72h-1.81333c.06667-.17333.25333-.4.73333-.73333.69334-.54667.92-.77334.92-1.36 0-.58667-.33333-1.18667-1.33333-1.18667-.34938-.01832-.69196.10142-.95386.33339-.2619.23196-.42213.55758-.44614.90661h.81333c.05334-.33333.26667-.57333.58667-.57333s.49333.24.49333.58666c0 .34667-.17333.48-.72.88-.3383.18423-.62302.45307-.82634.78025zm4.69319.20642v.88h.77335v-.88h.4667v-.69333h-.4667v-2.34667h-.92002l-1.62666 2.29334v.74666zm0-2.30666v.92l-.01333.69333h-1.02667c.37659-.51789.7238-1.05652 1.04-1.61333z" fill="#1a1a1a" fill-opacity=".6" fill-rule="evenodd"/></g></svg>

<svg width="16" height="16" viewBox="0 0 16 16" fill="none" xmlns="http://www.w3.org/2000/svg">
<g clip-path="url(#clip0_74_2538)">
<path fill-rule="evenodd" clip-rule="evenodd" d="M12.0001 2.66666V6.66667H4.00008V1.33333L12 1.33333V2.66666H12.0001ZM13.3334 2.66666V2.66667H14.6667V2.66666H13.3334ZM14.6667 4.02667H13.3334V5.33333H14.6667V4.02667ZM14.6667 7.99999H12.1333V7.99333C12.0892 7.99776 12.0448 8 12.0001 8H4.00008C3.93266 8 3.86577 7.99489 3.79993 7.9849V7.99999H1.33333V14.6667L4 14.6667V10.6667C4 10.313 4.14048 9.9739 4.39052 9.72385C4.64057 9.4738 4.97971 9.33333 5.33333 9.33333H10.6667C11.0203 9.33333 11.3594 9.4738 11.6095 9.72385C11.8595 9.9739 12 10.313 12 10.6667V14.6667L14.6667 14.6667V7.99999ZM10.6667 16H5.33333H1.33333C0.979711 16 0.640573 15.8595 0.390524 15.6095C0.140476 15.3594 0 15.0203 0 14.6667V2.66666C0 2.31304 0.140476 1.9739 0.390524 1.72385C0.640573 1.4738 0.979711 1.33333 1.33333 1.33333H2.66675C2.66675 0.979708 2.80722 0.640572 3.05727 0.390524C3.30732 0.140476 3.64646 0 4.00008 0H12.0001C12.3537 0 12.6928 0.140476 12.9429 0.390524C13.1929 0.640573 13.3334 0.979711 13.3334 1.33333L14.6667 1.33333C15.0203 1.33333 15.3594 1.4738 15.6095 1.72385C15.8595 1.9739 16 2.31304 16 2.66666V14.6667C16 15.0203 15.8595 15.3594 15.6095 15.6095C15.3594 15.8595 15.0203 16 14.6667 16H10.6667ZM2.66675 2.66666H1.33333V2.66667H2.66675V2.66666ZM1.33333 4.02667H2.66675V5.33333H1.33333V4.02667ZM10.6667 14.6667V10.6667H8.66658V14.6667H10.6667ZM7.33325 14.6667V10.6667H5.33333V14.6667H7.33325ZM5.20026 4.91358C4.99694 5.24076 4.88198 5.6151 4.8666 6H7.63994L7.7466 5.28H5.93327C5.99994 5.10667 6.1866 4.88 6.6666 4.54667C7.35994 4 7.5866 3.77333 7.5866 3.18667C7.5866 2.6 7.25327 2 6.25327 2C5.90389 1.98168 5.56131 2.10142 5.29941 2.33339C5.03751 2.56535 4.87728 2.89097 4.85327 3.24H5.6666C5.71994 2.90667 5.93327 2.66667 6.25327 2.66667C6.57327 2.66667 6.7466 2.90667 6.7466 3.25333C6.7466 3.6 6.57327 3.73333 6.0266 4.13333C5.6883 4.31756 5.40358 4.5864 5.20026 4.91358ZM9.89345 5.12V6H10.6668V5.12H11.1335V4.42667H10.6668V2.08H9.74678L8.12012 4.37334V5.12H9.89345ZM9.89345 2.81334V3.73334L9.88012 4.42667H8.85345C9.23004 3.90878 9.57725 3.37015 9.89345 2.81334Z" fill="#1A1A1A" fill-opacity="0.6"/>
</g>
<defs>
<clipPath id="clip0_74_2538">
<rect width="16" height="16" fill="white"/>
</clipPath>
</defs>
</svg>
